X: 1
T: Deanston Mill
T: 8x32S 3C (George Will)
P: John Stephen of "Chance Inn"
R: strathspey
C: by Angus Fitchet
C: Arr. T. Traub 8-4-03
M: 4/4
L: 1/8
K: F
C|"F"F2 F>G A>B c<A|"Dm"f>e d>c "Am"A>B c<A|"Bb"d>c B<d "F"c>A F>A|"Gm"G<G "G7"g>f "C"(3edc BAG|"F"F2 F>A A>B c<A|
"Dm"f>e d>c "Am"A>B c<A|"Bb"d>c B>d "F"c>A F>f|"C"(3edc BAG "F"F2 F||c|"F"a>g f>a "C"g>e c>e|"Dm"f>e d>f "Am"e<a A2|
"Bb"d>c B<d "F"c>A F>A|"G"G<G g>f "C"e>d e<c|"F"a>g f>a "C"g>e c>e|"Dm"f>e d>f "Am"e<a A2|"Bb"d>c B>d "F"c>A F>f|"C"(3edc (3BAG "F"F2-F |]
